X: 2684
T: Banks Of Crouch
R: waltz
M: 3/4
K: Gmajor
GF GA|B2 DE GF|~E3 DGA|B2 DGBc|
[1 ~A3 GFA|B2 DE GF|~E3 FGA|~B3 dAB|G2:|
[2 A3 GBc|d3 Bde|d2 BAGB|~A3 BAF|~G3 FGA||
|:G2 AG Bd|~e3 deg|f3 efa|g2 fedB|
G2 AG Bd|~e3 deg|f3 afd|1 B3 dBA:|2 B3 GAB||
|:c2 BG AG|ED EG AG|Bc BA AG|[M:2/4] A2 AA|
[M:3/4]Bc BG AG|ED EG AG|Bc BA Ac|[M:2/4]d2 dd:|
|:[M:3/4] gd Bd gf|~e3 dfg|af df ab|~a3 gfa|
gd Bd gf|~e3 dBG|~A3 BAF|1 G3 ABd:|2 G2||

